dist/svgs/org-checkbox-checked.svg

<svg xmlns="http://www.w3.org/2000/svg" viewBox="0 0 512 512"><path d="M439 0q30 0 51.5 21.5T512 73v366q0 30-21.5 51.5T439 512H73q-30 0-51.5-21.5T0 439V73q0-30 21.5-51.5T73 0h366zm29 73q0-12-8.5-20.5T439 44H73q-12 0-20.5 8.5T44 73v366q0 12 8.5 20.5T73 468h366q12 0 20.5-8.5T468 439V73zm-96 82q6-6 15-6t16 6q6 7 6 16t-6 15L232 357q-6 6-15 6-10 0-16-6l-92-92q-6-7-6-16t6-15q7-7 16-7t15 7l77 76z"/></svg>

<?xml version="1.0" encoding="UTF-8" standalone="no"?><svg   xmlns:svg="http://www.w3.org/2000/svg"   xmlns="http://www.w3.org/2000/svg"   version="1.1"   width="512"   height="512"   viewBox="0 0 512 512">  <path     d="M439 0Q469 0 490.5 21.5T512 73V439Q512 469 490.5 490.5T439 512H73Q43 512 21.5 490.5T0 439V73Q0 43 21.5 21.5T73 0H439zM468 73Q468 61 459.5 52.5T439 44H73Q61 44 52.5 52.5T44 73V439Q44 451 52.5 459.5T73 468H439Q451 468 459.5 459.5T468 439V73zM372 155Q378 149 387 149T403 155Q409 162 409 171T403 186L232 357Q226 363 217 363Q207 363 201 357L109 265Q103 258 103 249T109 234Q116 227 125 227T140 234L217 310z"     id="org-checkbox-checked" /></svg>
